X: 3
T: Lamplighter's Hornpipe
N: RJ R-90
M: C|
Z: Transcribed to abc by Mary Lou Knack
R: hornpipe, reel
K: A
cd |\
"A"ecec eagf | ecec eagf |\
[1,3 ecec fedc | "E7"d2B2 B2 :|\
[2,4 efde "E7"cdBc | "A"A2A2 A2 :|
|: cd |\
"A"edcd e2fe | "E7"dcBc d2ed |\
[1,3 "A"cAcA dcBA | "E"GABc B2 :|\
[2,4 "A"cagf "E"edcB | "A"A2c2 A2 :|
% text 10/17/11

